static/images/logo_ugent_en.svg

<?xml version="1.0" encoding="UTF-8"?>
<svg xmlns="http://www.w3.org/2000/svg" xmlns:xlink="http://www.w3.org/1999/xlink" width="56pt" height="48pt" viewBox="0 0 56 48" version="1.1">
<g>
<path fill="#1E64C8" d="
M11.266,16.504h1.246v-8.098h-1.246Z
M8.773,16.504h1.246v-8.098h-1.246Z
M6.277,16.504h1.246v-8.098h-1.246Z
M3.785,16.504h1.246v-8.098h-1.246Z
M13.762,16.504h1.246v-8.098h-1.246Z
M16.254,16.504h1.246v-8.098h-1.246Z
M18.75,16.504h1.246v-8.098h-1.246Z
M2.508,19h18.766v-1.25h-18.766Z
M19.996,7.16h-16.211l-1.25,-1.246h18.707Z
M1.262,21.492h21.258v-1.246h-21.258Z
M22.52,3.898l-10.629,-3.766l-10.629,3.766v1.32l10.629,-3.762l10.629,3.762Z
M11.582,31.297h-2.688v4h-1.25v-8.816h1.25v3.758h2.688v-3.758h1.246v8.816h-1.246Z
M38.91,39.828c0.551,-0.004,1.07,0.18,1.309,0.367v-1.125c-0.238,-0.148,-0.824,-0.309,-1.418,-0.309c-1.656,0,-2.566,0.941,-2.566,2.305c0,1.141,0.48,1.688,1.258,2.355l0.711,0.613c0.586,0.492,0.949,0.867,0.949,1.602c0,0.855,-0.566,1.199,-1.418,1.199c-0.645,0,-1.18,-0.18,-1.488,-0.395v1.145c0.27,0.156,0.836,0.316,1.598,0.316c1.652,-0.004,2.562,-0.941,2.566,-2.309c0,-1.137,-0.484,-1.684,-1.258,-2.355l-0.711,-0.613c-0.586,-0.504,-0.953,-0.863,-0.949,-1.598c0,-0.863,0.562,-1.199,1.418,-1.199
M31.246,39.98v3.109h0.664c0.977,0,1.629,-0.207,1.629,-1.562c0,-1.344,-0.652,-1.547,-1.629,-1.547ZM29.996,38.922h2.035c1.629,0,2.797,0.609,2.797,2.605c0,1.395,-0.68,2.074,-1.535,2.387l1.875,3.824h-1.426l-1.656,-3.594h-0.84v3.594h-1.25v-8.816
M1.262,45.082v-6.16h1.246v6.215c0,1.301,0.449,1.68,1.355,1.68c0.91,0,1.355,-0.379,1.355,-1.68v-6.215h1.25v6.16c0,2.008,-0.84,2.82,-2.605,2.82c-1.789,0,-2.602,-0.785,-2.602,-2.82
M8.082,38.922h1.438l2.781,7.027c-0.094,-0.719,-0.176,-1.559,-0.176,-2.348v-4.68h1.195v8.816h-1.438l-2.809,-7.051c0.105,0.719,0.203,1.574,0.203,2.371v4.68h-1.195Z
M15.086,47.738h1.246v-8.816h-1.246Z
M17.492,38.922h1.305l1.109,4.586c0.164,0.691,0.367,1.859,0.492,2.781c0.121,-0.922,0.324,-2.09,0.512,-2.781l1.102,-4.586h1.262l-2.238,8.816h-1.305Z
M24.434,38.922h4.121v1.059h-2.875v2.699h2.32v1.043h-2.32v2.961h2.875v1.055h-4.121Z
M41.891,47.738h1.246v-8.816h-1.246Z
M0.988,30.891c0,-3.473,0.922,-4.574,3.215,-4.574c0.652,0,1.344,0.176,1.641,0.355v1.152c-0.324,-0.191,-0.949,-0.395,-1.547,-0.395c-1.465,0,-2.02,0.543,-2.02,3.461c0,2.887,0.395,3.484,1.668,3.484c0.395,0,0.719,-0.055,0.965,-0.121v-2.945h-1.305v-1.055h2.551v4.758c-0.258,0.164,-1.289,0.449,-2.195,0.449c-2.391,0,-2.973,-1.246,-2.973,-4.57
M14.594,26.48h4.125v1.059h-2.875v2.699h2.32v1.043h-2.32v2.957h2.875v1.059h-4.125Z
M20.16,26.48h1.438l2.781,7.027c-0.094,-0.719,-0.176,-1.559,-0.176,-2.348v-4.68h1.195v8.816h-1.441l-2.805,-7.055c0.105,0.723,0.203,1.574,0.203,2.375v4.68h-1.195Z
M26.539,26.48h5.059v1.059h-1.91v7.758h-1.25v-7.758h-1.898Z
M52.289,44.078l-2.414,-5.156h1.371l1.043,2.375c0.246,0.57,0.477,1.18,0.625,1.723c0.164,-0.543,0.406,-1.152,0.652,-1.723l1.043,-2.375h1.332l-2.402,5.156v3.66h-1.25Z
M44.324,38.922h5.059v1.059h-1.914v7.758h-1.246v-7.758h-1.898Z
"/>
</g>
</svg>

<?xml version="1.0" encoding="UTF-8"?>
<svg xmlns="http://www.w3.org/2000/svg" xmlns:xlink="http://www.w3.org/1999/xlink" width="64pt" height="48pt" viewBox="0 0 64 48" version="1.1">
<g id="surface1">
<path fill="#1E64C8" d="M11.266,16.504L12.512,16.504L12.512,8.406L11.266,8.406Z M11.266,16.504"/>
<path fill="#1E64C8" d="M8.773,16.504L10.02,16.504L10.02,8.406L8.773,8.406Z M8.773,16.504"/>
<path fill="#1E64C8" d="M6.277,16.504L7.523,16.504L7.523,8.406L6.277,8.406Z M6.277,16.504"/>
<path fill="#1E64C8" d="M3.785,16.504L5.031,16.504L5.031,8.406L3.785,8.406Z M3.785,16.504"/>
<path fill="#1E64C8" d="M13.762,16.504L15.008,16.504L15.008,8.406L13.762,8.406Z M13.762,16.504"/>
<path fill="#1E64C8" d="M16.254,16.504L17.5,16.504L17.5,8.406L16.254,8.406Z M16.254,16.504"/>
<path fill="#1E64C8" d="M18.75,16.504L19.996,16.504L19.996,8.406L18.75,8.406Z M18.75,16.504"/>
<path fill="#1E64C8" d="M2.508,19L21.273,19L21.273,17.75L2.508,17.75Z M2.508,19"/>
<path fill="#1E64C8" d="M19.996,7.16L3.785,7.16L2.535,5.914L21.242,5.914L19.996,7.16"/>
<path fill="#1E64C8" d="M1.262,21.492L22.52,21.492L22.52,20.246L1.262,20.246Z M1.262,21.492"/>
<path fill="#1E64C8" d="M22.52,3.898L11.891,0.133L1.262,3.898L1.262,5.219L11.891,1.457L22.52,5.219L22.52,3.898"/>
<path fill="#1E64C8" d="M11.582,31.297L8.895,31.297L8.895,35.297L7.645,35.297L7.645,26.48L8.895,26.48L8.895,30.238L11.582,30.238L11.582,26.48L12.828,26.48L12.828,35.297L11.582,35.297L11.582,31.297"/>
<path fill="#1E64C8" d="M38.91,39.828C39.461,39.824,39.98,40.008,40.219,40.195 L40.219,39.07C39.98,38.922,39.395,38.762,38.801,38.762 C37.145,38.762,36.234,39.703,36.234,41.066 C36.234,42.207,36.715,42.754,37.492,43.422 L38.203,44.035C38.789,44.527,39.152,44.902,39.152,45.637 C39.152,46.492,38.586,46.836,37.734,46.836 C37.09,46.836,36.555,46.656,36.246,46.441 L36.246,47.586C36.516,47.742,37.082,47.902,37.844,47.902 C39.496,47.898,40.406,46.961,40.41,45.594 C40.41,44.457,39.926,43.91,39.152,43.238 L38.441,42.625C37.855,42.121,37.488,41.762,37.492,41.027 C37.492,40.164,38.055,39.828,38.91,39.828 "/>
<path fill="#1E64C8" d="M31.246,39.98L31.246,43.09L31.91,43.09C32.887,43.09,33.539,42.883,33.539,41.527 C33.539,40.184,32.887,39.98,31.91,39.98 Z M29.996,38.922L32.031,38.922C33.66,38.922,34.828,39.531,34.828,41.527 C34.828,42.922,34.148,43.602,33.293,43.914 L35.168,47.738L33.742,47.738L32.086,44.145L31.246,44.145L31.246,47.738L29.996,47.738L29.996,38.922"/>
<path fill="#1E64C8" d="M1.262,45.082L1.262,38.922L2.508,38.922L2.508,45.137C2.508,46.438,2.957,46.816,3.863,46.816 C4.773,46.816,5.219,46.438,5.219,45.137 L5.219,38.922L6.469,38.922L6.469,45.082C6.469,47.09,5.629,47.902,3.863,47.902 C2.074,47.902,1.262,47.117,1.262,45.082 "/>
<path fill="#1E64C8" d="M8.082,38.922L9.52,38.922L12.301,45.949C12.207,45.23,12.125,44.391,12.125,43.602 L12.125,38.922L13.32,38.922L13.32,47.738L11.883,47.738L9.074,40.688C9.18,41.406,9.277,42.262,9.277,43.059 L9.277,47.738L8.082,47.738L8.082,38.922"/>
<path fill="#1E64C8" d="M15.086,47.738L16.332,47.738L16.332,38.922L15.086,38.922Z M15.086,47.738"/>
<path fill="#1E64C8" d="M17.492,38.922L18.797,38.922L19.906,43.508C20.07,44.199,20.273,45.367,20.398,46.289 C20.52,45.367,20.723,44.199,20.91,43.508 L22.012,38.922L23.273,38.922L21.035,47.738L19.73,47.738L17.492,38.922"/>
<path fill="#1E64C8" d="M24.434,38.922L28.555,38.922L28.555,39.98L25.68,39.98L25.68,42.68L28,42.68L28,43.723L25.68,43.723L25.68,46.684L28.555,46.684L28.555,47.738L24.434,47.738L24.434,38.922"/>
<path fill="#1E64C8" d="M41.891,47.738L43.137,47.738L43.137,38.922L41.891,38.922Z M41.891,47.738"/>
<path fill="#1E64C8" d="M0.988,30.891C0.988,27.418,1.91,26.316,4.203,26.316 C4.855,26.316,5.547,26.492,5.844,26.672 L5.844,27.824C5.52,27.633,4.895,27.43,4.297,27.43 C2.832,27.43,2.277,27.973,2.277,30.891 C2.277,33.777,2.672,34.375,3.945,34.375 C4.34,34.375,4.664,34.32,4.91,34.254 L4.91,31.309L3.605,31.309L3.605,30.254L6.156,30.254L6.156,35.012C5.898,35.176,4.867,35.461,3.961,35.461 C1.57,35.461,0.988,34.215,0.988,30.891 "/>
<path fill="#1E64C8" d="M14.594,26.48L18.719,26.48L18.719,27.539L15.844,27.539L15.844,30.238L18.164,30.238L18.164,31.281L15.844,31.281L15.844,34.238L18.719,34.238L18.719,35.297L14.594,35.297L14.594,26.48"/>
<path fill="#1E64C8" d="M20.16,26.48L21.598,26.48L24.379,33.508C24.285,32.789,24.203,31.949,24.203,31.16 L24.203,26.48L25.398,26.48L25.398,35.297L23.957,35.297L21.152,28.242C21.258,28.965,21.355,29.816,21.355,30.617 L21.355,35.297L20.16,35.297L20.16,26.48"/>
<path fill="#1E64C8" d="M26.539,26.48L31.598,26.48L31.598,27.539L29.688,27.539L29.688,35.297L28.438,35.297L28.438,27.539L26.539,27.539L26.539,26.48"/>
<path fill="#1E64C8" d="M52.289,44.078L49.875,38.922L51.246,38.922L52.289,41.297C52.535,41.867,52.766,42.477,52.914,43.02 C53.078,42.477,53.32,41.867,53.566,41.297 L54.609,38.922L55.941,38.922L53.539,44.078L53.539,47.738L52.289,47.738L52.289,44.078"/>
<path fill="#1E64C8" d="M44.324,38.922L49.383,38.922L49.383,39.98L47.469,39.98L47.469,47.738L46.223,47.738L46.223,39.98L44.324,39.98L44.324,38.922"/>
</g>
</svg>
